X:1

T:Baroc, La

M:2/4

L:1/8

S:Daubat – Cent Contredanses en Rond (1757), No. 36

Z:AK/Fiddler’s Companion

K:G

d2 (e/f/g) | fed=f | ecBc | d2d2 | d2 (e/f/g) | fed=f | ecBc | d2d2 :|

M:6/8

L:1/8

BGB BGB | cAc cAc | BGB BGB | {e}d3 d3 |BGB BGB | cAc cAc | BAG AGF | G3G3 :|

M:2/4

L:1/8

G2 G/A/B | A2 B/c/d | BGBc | d2d2 | G2 (G/A/B) | A2 (A/B/c) | Bg Af | g2G2 :|

                       

BARON O’ BRACKLEY, THE.  Scottish, March (2/4 time). A Mixolydian. Standard tuning. AABB. Composed by Scots fiddler-composer J. Scott Skinner (1843-1927). Skinner (Harp and Claymore), 1904; pg. 34.

